X: 1
T: l'Ange aux patins
T: Angel on Ice Skates
R: waltz
Z: 2020 John Chambers <jc:trillian.mit.edu>
S: https://www.facebook.com/groups/fiddlehellmassachusetts/ 2020-6-17
M: 3/4
L: 1/8
K: D
|:\
"D"d3 e f2 | a3 f e2 | "Bm"d3 e f2 | a2 f2 e2 |\
"G"d3 e f2 | a2 f2 e2 | "Em"e2 d2 B2 | "A7"(3BcB A2 F2 |\
[1 "D"{F}A6- | "A7"A6 :|[2 "D"{F}A6- | "B7"A6 ||
|:\
"Em"E3 F G2 | B4 A2 | "G"G3 A B2 | d4 c2 |\
"Bm"B3 c d2 | "Bb+(D/A)"f2 e2 d2 | "D/A(E7)"{e}d2 c2 d2 |\
[1 "A"e6 :|2 "A"e6- | !d.C.!e6 |]
